X: 24828
T: Maggie Pickins
R: strathspey
M: 4/4
K: Amajor
|:AFEF ABce-|ecB/B/A BAFA|AFEF ABce-|ec (3BcB A2A2:|
feae f2 af|ec (3cBA BAFA|feae f2 af|ec (3cBA B2 A2|
feae f2 af|eccA BAFA|AFEF ABce-|ec (3BcB A2A2||

